X:1
T:Title
%%score { 1 | ( 2 3 ) }
L:1/8
Q:1/4=100
M:6/8
K:Bb
V:1 treble nm="Grand Piano"
V:2 bass 
V:3 bass 
V:1
 [DF]2 [DF] [EG]2 [DF] | [DF]2 [B,D] [DF]3 | A2 A c2 A | [DB]2 [DF] .[DB]3 | %4
w: B.~E.~Warren * * *||||
 [Fd]2 [DB] [Ge]2 [Fd] |[M:15/16] [Gc]->[Gc][Gd][Ge]3/2- [Ge]3 |[M:3/4] [FB]2 [FA] [FB]2 [Gc] | %7
w: |||
[M:7/8] [FB]2 [EA] [DB]3 z |[M:3/4] [Fd][Fd] [Fd][Fd] [Ec][DB] | B2 A A3 | AA AA GF | %11
w: ||||
 [EG]2 [DF] .[DF]3 | B2 Bc cc |[M:15/16] d->d[FB][Ge]3/2- [Ge]3 |[M:3/4] [Fd]2 [DB][GB] AG | %15
w: ||||
 F2 c [DB]3 |] %16
w: |
V:2
 [B,,B,]2 [B,,B,] [B,,B,]2 [B,,B,] | [B,,B,]2 [B,,F,] [B,,B,]3 | [F,CE]2 [F,CE] [F,A,E]2 [F,CE] | %3
 [B,,B,]2 [B,,B,] .[B,,F,]3 | [B,,B,]2 [B,,B,] [B,,B,]2 [B,,B,] | %5
[M:15/16] [E,B,]->[E,B,][D,=B,][C,C]3/2- [C,C]3 |[M:3/4] [F,D]2 [E,C] [D,B,]2 [E,E] | %7
[M:7/8] [F,D]2 [F,C] [B,,B,]3 z |[M:3/4] [B,,B,][B,,B,] [B,,B,][B,,B,] [B,,B,][B,,B,] | %9
 [F,CE]2 [F,CE] [F,CE]3 | z2 z C z2 | [B,,B,]2 [B,,B,] .[B,,B,]3 | %12
 [G,B,D]2 [G,B,D][F,A,F] [F,A,F][F,A,F] |[M:15/16] [B,F]->[B,F][K:bass][D,B,][E,B,]3/2- [E,B,]3 | %14
[M:3/4] [B,,B,]2 .[B,,B,]2 F[E,B,E] | [F,A,E]2 [F,,F,A,E] [B,,B,]3 |] %16
V:3
 x6 | x6 | x6 | x6 | x6 |[M:15/16] x15/2 |[M:3/4] x6 |[M:7/8] x7 |[M:3/4] x6 | x6 | %10
 [F,CE][F,CE] [F,CE][F,E]- [F,B,E][F,A,E] | x6 | x6 |[M:15/16] x2[K:bass] x11/2 | %14
[M:3/4] z2 z .[E,B,]3 | x6 |] %16

